icons/circle/48/qopenvpn.svg

<svg xmlns="http://www.w3.org/2000/svg" viewBox="0 0 48 48">
 <defs>
  <linearGradient id="linearGradient3845" y1="47" x2="0" y2="1" gradientUnits="userSpaceOnUse">
   <stop style="stop-color:#f0e8cc;stop-opacity:1"/>
   <stop offset="1" style="stop-color:#f5efdb;stop-opacity:1"/>
  </linearGradient>
 </defs>
 <g>
  <path d="m 36.31 5 c 5.859 4.062 9.688 10.831 9.688 18.5 c 0 12.426 -10.07 22.5 -22.5 22.5 c -7.669 0 -14.438 -3.828 -18.5 -9.688 c 1.037 1.822 2.306 3.499 3.781 4.969 c 4.085 3.712 9.514 5.969 15.469 5.969 c 12.703 0 23 -10.298 23 -23 c 0 -5.954 -2.256 -11.384 -5.969 -15.469 c -1.469 -1.475 -3.147 -2.744 -4.969 -3.781 z m 4.969 3.781 c 3.854 4.113 6.219 9.637 6.219 15.719 c 0 12.703 -10.297 23 -23 23 c -6.081 0 -11.606 -2.364 -15.719 -6.219 c 4.16 4.144 9.883 6.719 16.219 6.719 c 12.703 0 23 -10.298 23 -23 c 0 -6.335 -2.575 -12.06 -6.719 -16.219 z" style="opacity:0.05"/>
  <path d="m 41.28 8.781 c 3.712 4.085 5.969 9.514 5.969 15.469 c 0 12.703 -10.297 23 -23 23 c -5.954 0 -11.384 -2.256 -15.469 -5.969 c 4.113 3.854 9.637 6.219 15.719 6.219 c 12.703 0 23 -10.298 23 -23 c 0 -6.081 -2.364 -11.606 -6.219 -15.719 z" style="opacity:0.1"/>
  <path d="m 31.25 2.375 c 8.615 3.154 14.75 11.417 14.75 21.13 c 0 12.426 -10.07 22.5 -22.5 22.5 c -9.708 0 -17.971 -6.135 -21.12 -14.75 a 23 23 0 0 0 44.875 -7 a 23 23 0 0 0 -16 -21.875 z" style="opacity:0.2"/>
 </g>
 <g>
  <path d="m 24 1 c 12.703 0 23 10.297 23 23 c 0 12.703 -10.297 23 -23 23 -12.703 0 -23 -10.297 -23 -23 0 -12.703 10.297 -23 23 -23 z" style="fill:url(#linearGradient3845);fill-opacity:1"/>
 </g>
 <g>
  <path d="m 40.03 7.531 c 3.712 4.084 5.969 9.514 5.969 15.469 0 12.703 -10.297 23 -23 23 c -5.954 0 -11.384 -2.256 -15.469 -5.969 4.178 4.291 10.01 6.969 16.469 6.969 c 12.703 0 23 -10.298 23 -23 0 -6.462 -2.677 -12.291 -6.969 -16.469 z" style="opacity:0.1"/>
 </g>
 <path d="m 25 10 c -8.284 0 -15 6.716 -15 15 0.002 5.669 3.199 10.853 8.264 13.398 l 0.953 -7.875 c -1.422 -1.488 -2.216 -3.466 -2.217 -5.523 c 0 -4.418 3.582 -8 8 -8 4.418 0 8 3.582 8 8 -0.004 2.055 -0.798 4.03 -2.219 5.516 l 0.953 7.869 c 5.061 -2.543 8.259 -7.72 8.266 -13.385 0 -8.284 -6.716 -15 -15 -15 m 0 10 a 5 5 0 0 0 -5 5 5 5 0 0 0 2.393 4.26 l -1.238 10.221 a 15 15 0 0 0 3.846 0.52 15 15 0 0 0 3.848 -0.51 l -1.24 -10.23 a 5 5 0 0 0 2.393 -4.26 5 5 0 0 0 -5 -5" style="fill:#000;opacity:0.1;fill-opacity:1;stroke:none"/>
 <path d="m 24 9 c -8.284 0 -15 6.716 -15 15 c 0.002 5.669 3.199 10.853 8.264 13.398 l 0.953 -7.875 c -1.422 -1.488 -2.216 -3.466 -2.217 -5.523 c 0 -4.418 3.582 -8 8 -8 4.418 0 8 3.582 8 8 -0.004 2.055 -0.798 4.03 -2.219 5.516 l 0.953 7.869 c 5.061 -2.543 8.259 -7.72 8.266 -13.385 0 -8.284 -6.716 -15 -15 -15" style="fill:#f5984b;opacity:1;fill-opacity:1;stroke:none"/>
 <path d="m 24 19 a 5 5 0 0 0 -5 5 5 5 0 0 0 2.393 4.26 L 20.15 38.48 A 15 15 0 0 0 24 39 15 15 0 0 0 27.848 38.49 L 26.607 28.26 A 5 5 0 0 0 29 24 5 5 0 0 0 24 19" style="fill:#1356a1;opacity:1;fill-opacity:1;stroke:none"/>
</svg>

<svg xmlns="http://www.w3.org/2000/svg" viewBox="0 0 48 48">
  <defs>
    <linearGradient id="a" y1="47" x2="0" y2="1" gradientUnits="userSpaceOnUse">
      <stop stop-color="#f0e8cc"/>
      <stop offset="1" stop-color="#f5efdb"/>
    </linearGradient>
  </defs>
  <path d="M36.31 5c5.859 4.062 9.688 10.831 9.688 18.5 0 12.426-10.07 22.5-22.5 22.5-7.669 0-14.438-3.828-18.5-9.688a23.24 23.24 0 0 0 3.781 4.969 22.923 22.923 0 0 0 15.469 5.969c12.703 0 23-10.298 23-23a22.92 22.92 0 0 0-5.969-15.469A23.216 23.216 0 0 0 36.31 5zm4.969 3.781A22.911 22.911 0 0 1 47.498 24.5c0 12.703-10.297 23-23 23a22.909 22.909 0 0 1-15.719-6.219C12.939 45.425 18.662 48 24.998 48c12.703 0 23-10.298 23-23 0-6.335-2.575-12.06-6.719-16.219z" opacity=".05"/>
  <path d="M41.28 8.781a22.923 22.923 0 0 1 5.969 15.469c0 12.703-10.297 23-23 23A22.92 22.92 0 0 1 8.78 41.281 22.911 22.911 0 0 0 24.499 47.5c12.703 0 23-10.298 23-23A22.909 22.909 0 0 0 41.28 8.781z" opacity=".1"/>
  <path d="M31.25 2.375C39.865 5.529 46 13.792 46 23.505c0 12.426-10.07 22.5-22.5 22.5-9.708 0-17.971-6.135-21.12-14.75a23 23 0 0 0 44.875-7 23 23 0 0 0-16-21.875z" opacity=".2"/>
  <path d="M24 1c12.703 0 23 10.297 23 23S36.703 47 24 47 1 36.703 1 24 11.297 1 24 1z" fill="url(#a)"/>
  <path d="M40.03 7.531A22.922 22.922 0 0 1 45.999 23c0 12.703-10.297 23-23 23A22.92 22.92 0 0 1 7.53 40.031C11.708 44.322 17.54 47 23.999 47c12.703 0 23-10.298 23-23 0-6.462-2.677-12.291-6.969-16.469z" opacity=".1"/>
  <path d="M25 10c-8.284 0-15 6.716-15 15a15 15 0 0 0 8.264 13.398l.953-7.875A8 8 0 0 1 17 25a8 8 0 0 1 16 0 8.003 8.003 0 0 1-2.219 5.516l.953 7.869A15 15 0 0 0 40 25c0-8.284-6.716-15-15-15m0 10a5 5 0 0 0-5 5 5 5 0 0 0 2.393 4.26l-1.238 10.221a15 15 0 0 0 3.846.52 15 15 0 0 0 3.848-.51l-1.24-10.23a5 5 0 0 0 2.393-4.26 5 5 0 0 0-5-5" opacity=".1"/>
  <path d="M24 9C15.716 9 9 15.716 9 24a15 15 0 0 0 8.264 13.398l.953-7.875A8 8 0 0 1 16 24a8 8 0 0 1 16 0 8.003 8.003 0 0 1-2.219 5.516l.953 7.869A15 15 0 0 0 39 24c0-8.284-6.716-15-15-15" fill="#f5984b"/>
  <path d="M24 19a5 5 0 0 0-5 5 5 5 0 0 0 2.393 4.26L20.15 38.48A15 15 0 0 0 24 39a15 15 0 0 0 3.848-.51l-1.241-10.23A5 5 0 0 0 29 24a5 5 0 0 0-5-5" fill="#1356a1"/>
</svg>
